X: 10671
T: THE FANCY
C: Composed by W.B. Laybourn
R: hornpipe
B: K\"ohler's Violin Repository, v.1, 1885 p.67 #1
F: http://www.archive.org/details/klersviolinrepos01edin
Z: 2012 John Chambers <jc:trillian.mit.edu>
M: C|
L: 1/8
K: A
|:\
vA2E>A (c>B)A>G | A>c (3efg a2e>g | (g>f)d>f (f>e)c>e | (.a>.g)(a>f) (3efd (3cdB |
A2E>A (c>B)A>G | A>c (3efg a2e>g | (3fba (3gfe (3dcB (3AGA | (3Bcd (3efg a2 :|
|: u(A/B/c/d/) |\
(e>^d)e>c  (a>g)a>f | (g>a)g>f (e>f)e>c | (d>c)d>B (g>f)d>c | (d<b)uB2 uB4 |
A2E>A (c>B)A>G | A>c (3efg a2e>g | (3fba (3gfe (3dcB (3AGA | (3Bcd (3efg a2 :|

%%sep 2 1 500

